X:1
T:Title
%%score { ( 1 3 ) | ( 2 4 ) }
L:1/8
M:4/4
K:Bb
V:1 treble nm="Grand Piano"
V:3 treble 
V:2 bass 
V:4 bass 
V:1
 z4 z2[Q:1/4=85] [DFB]2 | z4 z2 [Ge]2 | e>d d4 z z/ _A,/ | z4 B3/2 z/4 c/4 z2 | %4
[M:7/8] c2 z z z z2 |[M:1/8] [A,EF] |[M:4/4] B,2- [B,F]d edd[=Ec] | G6 z B | A2 G2 F2 F2 | %9
[M:7/8] F2 z z z z2 |] %10
V:2
 z4 z2 B,,D, | [F,DF]>[F,B,F] [F,B,E]4 [F,A,]A, | [B,G]>[B,F] [B,F]4 z[K:bass] .[B,,B,] | %3
 z4 G,2 z2 |[M:7/8] z2 F- F3 z |[M:1/8] F, | %6
[M:4/4] B,,2 D,[K:treble][F,B,F] [B,G][_A,B,F][G,=B,F][K:bass][C,_B,] | [E,B,E]6 z [=E,G,_D] | %8
 [=E,A,_D]2 [E,B,D]2 [F,B,=D]2 [F,B,D]2 |[M:7/8] F,2 z z z z2 |] %10
V:3
 x8 | B>A A4 z C | z4 z2 z [Fd] | [Ec][DB][DB][FB] E3/2-E/4->[E-B]/4[EA][B,EB] | %4
[M:7/8] E-E-E- E2- E/ z/ z |[M:1/8] x |[M:4/4] [DF]2 z2 z4 | x8 | x8 | %9
[M:7/8] z D [F,CEF]2 [B,DF]3 |] %10
V:4
 x8 | x8 | x7[K:bass] x | [B,,G,][B,,F,][B,,G,][B,,_A,] C,2- [C,C]C, | %4
[M:7/8] [F,A,]-[F,A,]-[F,A,]- [F,A,]3 z |[M:1/8] x |[M:4/4] x3[K:treble] x4[K:bass] x | x8 | x8 | %9
[M:7/8] [A,C]B, F,,2 B,,3 |] %10

